X:1
T:Title
%%score ( 1 2 ) 3
L:1/8
Q:1/4=110
M:4/4
K:A
V:1 treble nm="Grand Piano, Soprano"
V:2 treble 
V:3 bass nm="Choir Pad, La Mirada, 76.76.76 D"
V:1
 [CE]2 [A,C]2 [CE]2 [CA]2 | [CE]2 [Ec]2- [Ec][DB] [CA]2 | [EA]2 [FA]2- [FA][DF] [FA]2 | %3
w: By~Daniel~Brink~Towner,~1899 * * *|||
 [DF]2 [CE]6 | [CE]2 [DE]2 [DF]2 [DA]2 | [DE]2 [Ec]2- [Ec][DB] [CA]2 | z8 | z2 B6 | %8
w: |||||
 [CE]2 [A,C]2 [CE]2 [CA]2 | [CE]2 [Ec]2- [Ec][DB] [CA]2 | [EA]2 [FA]2- [FA][DF] [FA]2 | %11
w: |||
 [DF]2 [CE]6 | [CE]2 [Ee]2- [Ee][Ec] [EA]2 | E2 [EG][DF]- [DF]4 | [=CF]2 [^CE]2 [Ed]2 [Ec]2- | %15
w: ||||
 [Ec][DB] [CA]6 | E2 [DG]2 [DE]2 [DB]2 | [DE]2 [Ec]2- [Ec][DB] [CA]2 | %18
w: |||
 [EG]2 [DF]2- [DF][DB] [^DB]2 | [^DA]2 [EG]6 | E2 [Ee]2- [Ee][Ec] [EA]2 | E2 [EG][DF]- [DF]4 | %22
w: ||||
 [=CF]2 [^CE]2 [Ed]2 [Ec]2- | [Ec][DB] [CA]6- | [CA]2 z2 z4 |] %25
w: |||
V:2
 x8 | x8 | x8 | x8 | x8 | x8 | [CA]2 [EG]2 [EB]2 [^DF]2- | [DF][^DB] E4 =D2 | x8 | x8 | x8 | x8 | %12
 x8 | x8 | x8 | x8 | x8 | x8 | x8 | x8 | x8 | x8 | x8 | x8 | x8 |] %25
V:3
 [A,,A,]2 [A,,A,]2 [A,,A,]2 [A,,A,]2 | [A,,A,]2 [A,,A,]4 [A,,E,]2 | %2
 [C,A,]2 [D,A,]2- [D,A,][D,A,] [D,A,]2 | [D,A,]2 [A,,A,]6 | [A,,A,]2 [E,G,]2 [E,B,]2 [E,E]2 | %5
 [E,B,]2 [A,,A,]4 [A,,E,]2 | [A,,E,]2 [B,,E,]2 [B,,G,]2 [B,,B,]2- | [B,,B,][B,,A,] [E,G,]6 | %8
 [A,,A,]2 [A,,A,]2 [A,,A,]2 [A,,A,]2 | [A,,A,]2 [A,,A,]4 [A,,E,]2 | %10
 [C,A,]2 [D,A,]2- [D,A,][D,A,] [D,A,]2 | [D,A,]2 [A,,A,]6 | A,2 [A,C]2- [A,C]A, [A,C]2 | %13
 [C,A,]2 [D,A,][D,A,]- [D,A,]4 | [^D,A,]2 [E,A,]2 [E,B,]2 [E,A,]2- | [E,A,][E,G,] [A,,A,]6 | %16
 [E,G,]2 [E,B,]2 [E,B,]2 [E,G,]2 | [E,G,]2 [A,,A,]4 [A,,E,]2 | %18
 [C,A,]2 [D,A,]2- [D,A,][D,F,] [B,,F,]2 | [B,,B,]2 [E,B,]6 | [E,D]2 [A,C]2- [A,C]A, [A,C]2 | %21
 [C,A,]2 [D,A,][D,A,]- [D,A,]4 | [^D,A,]2 [E,A,]2 [E,B,]2 [E,A,]2- | [E,A,][E,G,] [A,,A,]6- | %24
 [A,,A,]2 z2 z4 |] %25

